X:1
T:Wind und Feuer
C:Jens Wollschlger
O:Germany
M:4/4
L:1/8
K:Edor
|:E2GB|d2cB|c2BA|GABd|c2BA|1 GABG|F4|E4:|2 BcdB|c4|B4:|
|:e2de|f2f2|d2cd|e2e2|c2BA|GABG|F4|E4:|
